X: 567
T: Florida Blues
C:Arthur Smith
B: jims roots
M:4/4
L:1/8
Q: 1/4=100
K:D
V:1 
|: (=f | "D"^f)afe dBA(=f | ^f)afe dBA2 | !slide!F2!slide!F2 DB,A,D |!slide!F2 !slide!F2 DB,A,D |
"G"GABc dBGF | GBdB eBdB | "D"DEFG AFA2 | !slide!d2 !slide!d2 AFG^G |
"A"AAB=c ^ca-a2 | AAB=c ^ca-a2 | faf=f edBA |[1 "D"[F4d4] z2 :| [2 "D"[F4d4] z2{=f}^f2 ||
"D"d4-dBAF | D4z2!slide!f2 | d2 !slide!f2 d2 AB | =cBAG FGAB |
"G"dBeB =fBeB | =fBeB dBAF | "D"DEFG AFA2 | !slide!d2!slide!d2 AFG^G |
"A"AAB=c ^ca2c | AAB=c ^ca2(=f | ^f)af=f edBA | "D"[F8d8] |]
"D"{=f}^f2  dd dddB | AF A2 AA A2 | {=f}^f2 dd dddB | Ad=c6|
"G"GFG_B =BdBA | GFG_B =BdBA | "D"DEFA BAFA | !slide!d2!slide!d2 AFG^G |
"A7"AAB=c ^ca-a2 | AAB=c ^ca-a2 | faf=f edBA |"D"[F8d8] |]
% abcbook-tune_id 6298c25dda352560a6df0f72


% abcbook-boost 0
% abcbook-tablature 
% abcbook-transpose 
% abcbook-lastupdated 1654178398006
% abcbook-soundfonts 
% abcbook-repeats 1


